archdroid-icon-theme/Archdroid-Purple/apps/scalable/gnome-panel-workspace-switcher.svg

<svg xmlns="http://www.w3.org/2000/svg" fill="#9C27B0" viewBox="0 0 48 48"><path d="m8 4c-2.216 0-4 1.784-4 4v15 2 15c0 2.216 1.784 4 4 4h15 2 15c2.216 0 4-1.784 4-4v-32c0-2.216-1.784-4-4-4h-15-2-15m0 4h15v15h-15v-15m17 0h15v15h-15v-15m-17 17h15v15h-15v-15m17 0h15v15h-15v-15"/><path opacity=".3" d="m8 8h15v15h-15z"/></svg>

<?xml version="1.0" encoding="UTF-8" standalone="no"?>
<svg
   xmlns:dc="http://purl.org/dc/elements/1.1/"
   xmlns:cc="http://creativecommons.org/ns#"
   xmlns:rdf="http://www.w3.org/1999/02/22-rdf-syntax-ns#"
   xmlns:svg="http://www.w3.org/2000/svg"
   xmlns="http://www.w3.org/2000/svg"
   xmlns:sodipodi="http://sodipodi.sourceforge.net/DTD/sodipodi-0.dtd"
   xmlns:inkscape="http://www.inkscape.org/namespaces/inkscape"
   fill="#9C27B0"
   width="48"
   height="48"
   viewBox="0 0 48 48"
   id="svg2"
   version="1.1"
   inkscape:version="0.91 r13725"
   sodipodi:docname="gnome-panel-workspace-switcher.svg">
  <metadata
     id="metadata10">
    <rdf:RDF>
      <cc:Work
         rdf:about="">
        <dc:format>image/svg+xml</dc:format>
        <dc:type
           rdf:resource="http://purl.org/dc/dcmitype/StillImage" />
      </cc:Work>
    </rdf:RDF>
  </metadata>
  <defs
     id="defs8" />
  <sodipodi:namedview
     pagecolor="#ffffff"
     bordercolor="#666666"
     borderopacity="1"
     objecttolerance="10"
     gridtolerance="10"
     guidetolerance="10"
     inkscape:pageopacity="0"
     inkscape:pageshadow="2"
     inkscape:window-width="1366"
     inkscape:window-height="713"
     id="namedview6"
     showgrid="false"
     inkscape:snap-bbox="true"
     inkscape:bbox-nodes="true"
     inkscape:snap-page="true"
     inkscape:zoom="3.897603885191481"
     inkscape:cx="-23.66345037175638"
     inkscape:cy="15.7825953850034"
     inkscape:window-x="0"
     inkscape:window-y="30"
     inkscape:window-maximized="1"
     inkscape:current-layer="svg2" />
  <g
     id="g4199">
    <path
       id="path4192"
       d="M 8 4 C 5.784000000000001 4.000000000000001 4 5.784000000000001 4 8 L 4 23 L 4 25 L 4 40 C 4.000000000000001 42.216 5.784000000000001 44 8 44 L 23 44 L 25 44 L 40 44 C 42.216 44 44 42.216 44 40 L 44 8 C 44 5.784000000000001 42.216 4 40 4 L 25 4 L 23 4 L 8 4 z M 8 8 L 23 8 L 23 23 L 8 23 L 8 8 z M 25 8 L 40 8 L 40 23 L 25 23 L 25 8 z M 8 25 L 23 25 L 23 40 L 8 40 L 8 25 z M 25 25 L 40 25 L 40 40 L 25 40 L 25 25 z "
       style="opacity:1;fill:#9C27B0;fill-opacity:1;fill-rule:nonzero;stroke:none;stroke-width:3;stroke-miterlimit:4;stroke-dasharray:none;stroke-opacity:1" />
    <rect
       y="8"
       x="8"
       height="15"
       width="15"
       id="rect4170"
       style="opacity:0.3;fill:#9C27B0;fill-opacity:1;fill-rule:nonzero;stroke:none;stroke-width:3;stroke-miterlimit:4;stroke-dasharray:none;stroke-opacity:1" />
  </g>
</svg>
